X: 10433
T: Donegal Castle
R: hornpipe
M: 4/4
K: Dmajor
|:(3ABc|d>AF>A (3ded (3cdc|B>GE>D [C3/2c3/2]F/A3/2[C/c/]|(3[Dd][Cc][Dd] B3/2[D/d/] (3[Cc][B,B][Cc] A>c|d2 f>e d>cB>A|
d>AF>A (3ded (3cdc|B>GE>D [C3/2c3/2]F/A3/2[C/c/]|(3[Dd][Cc][Dd] B3/2[D/d/] (3[Cc][B,B][Cc] A>c|d2 f>e d2:|
|:(3BAG|F>Ad>A f>dA>F|G2 B>d g>dB>d|c>de>f g>ec>e|d2 f>e (3BcB (3GAG|
(3FAd (3fdA (3FAd (3fdA|(3GBd (3gdB (3Bdf (3gdB|(3cec c'>b a>gf>e|d2 f2 d2:|

